X:1
T:Ayrshire, 12.10.12.4
T:Ayrshire, 12.10.12.4
T:Sarah Ellen Morrison Ruthrauff, 1893
T:Public Domain Courtesy of the Cyber Hymnal™
C:Sarah Ellen Morrison Ruthrauff, 1893
Z:Public Domain
Z:Courtesy of the Cyber Hymnal™
%%score ( 1 2 ) ( 3 4 )
L:1/8
Q:1/4=110
M:3/4
K:E
V:1 treble 
V:2 treble 
V:3 bass 
V:4 bass 
V:1
 [EB]2 | (B2 c2) [EA]2 | [EG][EA] [EB]2 [EG]2 | (F2 A2) [B,D]2 | [B,E][DF] [EG]2 [EG]2 | %5
 (F2 A2) [B,D]2 | [B,E]4 [EB]2 | (B2 G2) [EB]2 | [DA][EG] [FA]2 [FA]2 | ([FA]2 [DF]2) [DA]2 | %10
 [EG][E^^F] [EG]2 [EB]2 | (B2 c2) [EA]2 | [EG][EA] [EB]2 [EG]2 | (F2 A2) [B,D]2 | [B,E]4 |] %15
V:2
 x2 | E4 x2 | x6 | D4 x2 | x6 | C4 x2 | x6 | E4 x2 | x6 | x6 | x6 | E4 x2 | x6 | D4 x2 | x4 |] %15
V:3
 [E,G,]2 | (G,2 A,2) [E,C]2 | [E,B,][E,C] [E,G,]2 [E,B,]2 | [B,,B,]4 [B,,F,]2 | %4
 [E,G,][E,A,] [E,B,]2 [E,B,]2 | [F,A,]4 (3(B,A,F,) | [E,G,]4 [E,G,]2 | (G,2 B,2) [E,G,]2 | %8
 [B,,F,][B,,B,] [B,,B,]2 [B,,B,]2 | [B,,B,]4 [B,,B,]2 | [E,B,][E,^A,] [E,B,]2 [E,G,]2 | %11
 (G,2 A,2) [E,C]2 | [E,B,][E,C] [E,G,]2 [E,B,]2 | [B,,B,]4 (3(F,{G}G,A,) | [E,G,]4 |] %15
V:4
 x2 | E,4 x2 | x6 | x6 | x6 | x4 B,,2{e} | x6 | E,4 x2 | x6 | x6 | x6 | E,4 x2 | x6 | x4 B,,2 | %14
 x4 |] %15

